Newaita-dark/apps/32/terminator.svg

<svg height="32" viewBox="0 0 32 32" width="32" xmlns="http://www.w3.org/2000/svg" xmlns:xlink="http://www.w3.org/1999/xlink"><linearGradient id="a" gradientUnits="userSpaceOnUse" x1="15.214992" x2="15.214992" y1="28.033934" y2="29.35697800003"><stop offset="0" stop-opacity=".27451"/><stop offset="1" stop-opacity="0"/></linearGradient><linearGradient id="b"><stop offset="0" stop-opacity=".313726"/><stop offset=".222222" stop-opacity=".27451"/><stop offset="1" stop-opacity="0"/></linearGradient><radialGradient id="c" cx="450.908936" cy="189.579361" gradientTransform="matrix(.00000017 -.0781325 -.140638 -.0000001 53.453689 63.595333)" gradientUnits="userSpaceOnUse" r="21.166656" xlink:href="#b"/><radialGradient id="d" cx="450.908936" cy="189.579361" gradientTransform="matrix(-.00000017 .0781325 .140638 .0000001 -21.700654 -7.527479)" gradientUnits="userSpaceOnUse" r="21.166656" xlink:href="#b"/><radialGradient id="e" cx="450.908936" cy="189.579361" gradientTransform="matrix(-.00000017 -.0781325 .140638 -.0000001 -21.700654 63.595333)" gradientUnits="userSpaceOnUse" r="21.166656" xlink:href="#b"/><radialGradient id="f" cx="450.908936" cy="189.579361" gradientTransform="matrix(.00000017 .0781325 -.140638 .0000001 53.453687 -7.527479)" gradientUnits="userSpaceOnUse" r="21.166656" xlink:href="#b"/><linearGradient id="g" gradientTransform="matrix(.0720736 0 0 .190626 -4.909206 31.176492)" gradientUnits="userSpaceOnUse" x1="307.62677" x2="305.954529" y1="-22.391003" y2="-141.414581"><stop offset="0" stop-color="#424242"/><stop offset="1" stop-color="#616161"/></linearGradient><linearGradient id="h"><stop offset="0" stop-color="#ef5350"/><stop offset="1" stop-color="#e57373"/></linearGradient><linearGradient id="i" gradientTransform="matrix(-.0720736 0 0 .190626 36.662238 31.176492)" gradientUnits="userSpaceOnUse" x1="306.752686" x2="305.954529" xlink:href="#h" y1="-16.485477" y2="-141.414581"/><linearGradient id="j"><stop offset="0" stop-color="#f44336"/><stop offset="1" stop-color="#ef5350"/></linearGradient><linearGradient id="k" gradientTransform="matrix(.0720736 0 0 .190626 -4.909206 31.17649)" gradientUnits="userSpaceOnUse" x1="306.752686" x2="305.954529" xlink:href="#j" y1="-16.485477" y2="-141.414581"/><linearGradient id="l" gradientTransform="matrix(.0720736 0 0 -.190626 -4.909206 1.076571)" gradientUnits="userSpaceOnUse" x1="251.682175" x2="251.682175" xlink:href="#h" y1="-141.414673" y2="-16.485561"/><linearGradient id="m" gradientTransform="matrix(-.0720736 0 0 -.190626 36.662238 1.076572)" gradientUnits="userSpaceOnUse" x1="260.860596" x2="260.860596" xlink:href="#j" y1="-141.414673" y2="-16.485558"/><path d="m4.628906 28.109375h22.492188v1.246094h-22.492188zm0 0" fill="url(#a)"/><path d="m27.121094 28.035156h2.648437v-1.324218h-2.648437zm0 0" fill="url(#c)"/><path d="m4.628906 28.035156h-2.644531v1.320313h2.644531zm0 0" fill="url(#d)"/><path d="m4.628906 28.035156h-2.644531v-1.324218h2.644531zm0 0" fill="url(#e)"/><path d="m27.121094 28.035156h2.648437v1.320313h-2.648437zm0 0" fill="url(#f)"/><path d="m3.308594 4.21875h25.136718c.730469 0 1.324219.558594 1.324219 1.25v21.316406c0 .6875-.59375 1.25-1.324219 1.25h-25.136718c-.730469 0-1.324219-.5625-1.324219-1.25v-21.316406c0-.691406.59375-1.25 1.324219-1.25zm0 0" fill="url(#g)"/><path d="m28.445312 4.21875c.734376 0 1.324219.558594 1.324219 1.25v10.65625h-13.894531v-11.90625zm0 0" fill="url(#i)"/><path d="m3.308594 4.21875c-.734375 0-1.324219.558594-1.324219 1.25v10.65625h13.890625v-11.90625zm0 0" fill="url(#k)"/><path d="m3.308594 28.035156c-.734375 0-1.324219-.558594-1.324219-1.25v-10.660156h13.890625v11.910156zm0 0" fill="url(#l)"/><path d="m8.65625 7.859375c-.257812-.261719-.675781-.261719-.933594 0-.261718.257813-.261718.675781 0 .933594l1.871094 1.871093-1.871094 1.871094c-.261718.257813-.261718.675782 0 .9375.257813.257813.675782.257813.933594 0l2.339844-2.339844c.015625-.015624.03125-.035156.042968-.050781.214844-.261719.199219-.644531-.042968-.886719zm0 0" fill="#ececec" fill-opacity=".588235"/><path d="m3.308594 4.21875c-.734375 0-1.324219.558594-1.324219 1.25v.332031c0-.695312.589844-1.25 1.324219-1.25h25.136718c.734376 0 1.324219.554688 1.324219 1.25v-.332031c0-.691406-.589843-1.25-1.324219-1.25zm0 0" fill="#fff" fill-opacity=".392157"/><path d="m28.445312 28.035156c.734376 0 1.324219-.558594 1.324219-1.25v-10.660156h-13.894531v11.910156zm0 0" fill="url(#m)"/><path d="m3.308594 28.042969c-.734375 0-1.324219-.558594-1.324219-1.25v-.332031c0 .695312.589844 1.25 1.324219 1.25h25.136718c.734376 0 1.324219-.554688 1.324219-1.25v.332031c0 .691406-.589843 1.25-1.324219 1.25zm0 0" fill-opacity=".235294"/><path d="m3.96875 5.464844c-.40625 0-.738281.332031-.738281.738281v18.523437c0 .410157.332031.738282.738281.738282h23.816406c.40625 0 .738282-.328125.738282-.738282v-18.523437c0-.40625-.332032-.738281-.738282-.738281zm0 .15625h23.816406c.324219 0 .582032.257812.582032.582031v18.523437c0 .324219-.257813.582032-.582032.582032h-23.816406c-.324219 0-.582031-.257813-.582031-.582032v-18.523437c0-.324219.257812-.582031.582031-.582031zm0 0" fill="#212121"/><path d="m3.96875 5.628906c-.316406 0-.574219.257813-.574219.574219v18.523437c0 .316407.257813.574219.574219.574219h23.816406c.316406 0 .574219-.257812.574219-.574219v-18.523437c0-.316406-.257813-.574219-.574219-.574219zm0 .15625h23.816406c.230469 0 .417969.1875.417969.417969v18.523437c0 .234376-.1875.417969-.417969.417969h-23.816406c-.234375 0-.417969-.183593-.417969-.417969v-18.523437c0-.230469.183594-.417969.417969-.417969zm0 0" fill="#dedede" fill-opacity=".705882"/><path d="m52.932445-147.506445h402.149097c11.686384 0 21.185477 8.936646 21.185477 19.99809v341.029933c0 10.99895-9.499093 19.998091-21.185477 19.998091h-402.149097c-11.686384 0-21.185477-8.999141-21.185477-19.998091v-341.029933c0-11.061444 9.499093-19.99809 21.185477-19.99809zm0 0" fill="none" stroke="#212121" stroke-linecap="round" stroke-width="3" transform="matrix(.062506 0 0 .062506 0 13.438783)"/><path d="m22.21875 18.613281c-.261719-.261719-.675781-.261719-.9375 0-.257812.257813-.257812.675781 0 .933594l1.871094 1.871094-1.871094 1.871093c-.257812.261719-.257812.675782 0 .9375.261719.257813.675781.257813.9375 0l2.335938-2.339843c.019531-.015625.035156-.035157.046874-.050781.214844-.261719.199219-.640626-.046874-.886719zm0 0" fill="#ececec" fill-opacity=".588235"/></svg>

<?xml version="1.0" encoding="UTF-8"?>
<svg xmlns="http://www.w3.org/2000/svg" xmlns:xlink="http://www.w3.org/1999/xlink" width="32px" height="32px" viewBox="0 0 32 32" version="1.1">
<defs>
<linearGradient id="linear0" gradientUnits="userSpaceOnUse" x1="254" y1="233.5" x2="254" y2="254.666672" gradientTransform="matrix(0.062506,0,0,0.062506,-0.661532,13.438783)">
<stop offset="0" style="stop-color:rgb(0%,0%,0%);stop-opacity:0.27451;"/>
<stop offset="1" style="stop-color:rgb(0%,0%,0%);stop-opacity:0;"/>
</linearGradient>
<radialGradient id="radial0" gradientUnits="userSpaceOnUse" cx="450.908936" cy="189.579361" fx="450.908936" fy="189.579361" r="21.166656" gradientTransform="matrix(0.00000017417,-0.0781325,-0.140638,-0.000000101539,53.453689,63.595333)">
<stop offset="0" style="stop-color:rgb(0%,0%,0%);stop-opacity:0.313726;"/>
<stop offset="0.222222" style="stop-color:rgb(0%,0%,0%);stop-opacity:0.27451;"/>
<stop offset="1" style="stop-color:rgb(0%,0%,0%);stop-opacity:0;"/>
</radialGradient>
<radialGradient id="radial1" gradientUnits="userSpaceOnUse" cx="450.908936" cy="189.579361" fx="450.908936" fy="189.579361" r="21.166656" gradientTransform="matrix(-0.00000017417,0.0781325,0.140638,0.000000101539,-21.700654,-7.527479)">
<stop offset="0" style="stop-color:rgb(0%,0%,0%);stop-opacity:0.313726;"/>
<stop offset="0.222222" style="stop-color:rgb(0%,0%,0%);stop-opacity:0.27451;"/>
<stop offset="1" style="stop-color:rgb(0%,0%,0%);stop-opacity:0;"/>
</radialGradient>
<radialGradient id="radial2" gradientUnits="userSpaceOnUse" cx="450.908936" cy="189.579361" fx="450.908936" fy="189.579361" r="21.166656" gradientTransform="matrix(-0.00000017417,-0.0781325,0.140638,-0.000000101539,-21.700654,63.595333)">
<stop offset="0" style="stop-color:rgb(0%,0%,0%);stop-opacity:0.313726;"/>
<stop offset="0.222222" style="stop-color:rgb(0%,0%,0%);stop-opacity:0.27451;"/>
<stop offset="1" style="stop-color:rgb(0%,0%,0%);stop-opacity:0;"/>
</radialGradient>
<radialGradient id="radial3" gradientUnits="userSpaceOnUse" cx="450.908936" cy="189.579361" fx="450.908936" fy="189.579361" r="21.166656" gradientTransform="matrix(0.00000017417,0.0781325,-0.140638,0.000000101539,53.453687,-7.527479)">
<stop offset="0" style="stop-color:rgb(0%,0%,0%);stop-opacity:0.313726;"/>
<stop offset="0.222222" style="stop-color:rgb(0%,0%,0%);stop-opacity:0.27451;"/>
<stop offset="1" style="stop-color:rgb(0%,0%,0%);stop-opacity:0;"/>
</radialGradient>
<linearGradient id="linear1" gradientUnits="userSpaceOnUse" x1="307.62677" y1="-22.391003" x2="305.954529" y2="-141.414581" gradientTransform="matrix(0.0720736,0,0,0.190626,-4.909206,31.176492)">
<stop offset="0" style="stop-color:rgb(25.882354%,25.882354%,25.882354%);stop-opacity:1;"/>
<stop offset="1" style="stop-color:rgb(38.039216%,38.039216%,38.039216%);stop-opacity:1;"/>
</linearGradient>
<linearGradient id="linear2" gradientUnits="userSpaceOnUse" x1="306.752686" y1="-16.485477" x2="305.954529" y2="-141.414581" gradientTransform="matrix(-0.0720736,0,0,0.190626,36.662238,31.176492)">
<stop offset="0" style="stop-color:rgb(93.725491%,32.549021%,31.37255%);stop-opacity:1;"/>
<stop offset="1" style="stop-color:rgb(89.803922%,45.09804%,45.09804%);stop-opacity:1;"/>
</linearGradient>
<linearGradient id="linear3" gradientUnits="userSpaceOnUse" x1="306.752686" y1="-16.485477" x2="305.954529" y2="-141.414581" gradientTransform="matrix(0.0720736,0,0,0.190626,-4.909206,31.17649)">
<stop offset="0" style="stop-color:rgb(95.686275%,26.274511%,21.176471%);stop-opacity:1;"/>
<stop offset="1" style="stop-color:rgb(93.725491%,32.549021%,31.37255%);stop-opacity:1;"/>
</linearGradient>
<linearGradient id="linear4" gradientUnits="userSpaceOnUse" x1="251.682175" y1="-141.414673" x2="251.682175" y2="-16.485561" gradientTransform="matrix(0.0720736,0,0,-0.190626,-4.909206,1.076571)">
<stop offset="0" style="stop-color:rgb(93.725491%,32.549021%,31.37255%);stop-opacity:1;"/>
<stop offset="1" style="stop-color:rgb(89.803922%,45.09804%,45.09804%);stop-opacity:1;"/>
</linearGradient>
<linearGradient id="linear5" gradientUnits="userSpaceOnUse" x1="260.860596" y1="-141.414673" x2="260.860596" y2="-16.485558" gradientTransform="matrix(-0.0720736,0,0,-0.190626,36.662238,1.076572)">
<stop offset="0" style="stop-color:rgb(95.686275%,26.274511%,21.176471%);stop-opacity:1;"/>
<stop offset="1" style="stop-color:rgb(93.725491%,32.549021%,31.37255%);stop-opacity:1;"/>
</linearGradient>
</defs>
<g id="surface1">
<path style=" stroke:none;fill-rule:nonzero;fill:url(#linear0);" d="M 4.628906 28.109375 L 27.121094 28.109375 L 27.121094 29.355469 L 4.628906 29.355469 Z M 4.628906 28.109375 "/>
<path style=" stroke:none;fill-rule:nonzero;fill:url(#radial0);" d="M 27.121094 28.035156 L 29.769531 28.035156 L 29.769531 26.710938 L 27.121094 26.710938 Z M 27.121094 28.035156 "/>
<path style=" stroke:none;fill-rule:nonzero;fill:url(#radial1);" d="M 4.628906 28.035156 L 1.984375 28.035156 L 1.984375 29.355469 L 4.628906 29.355469 Z M 4.628906 28.035156 "/>
<path style=" stroke:none;fill-rule:nonzero;fill:url(#radial2);" d="M 4.628906 28.035156 L 1.984375 28.035156 L 1.984375 26.710938 L 4.628906 26.710938 Z M 4.628906 28.035156 "/>
<path style=" stroke:none;fill-rule:nonzero;fill:url(#radial3);" d="M 27.121094 28.035156 L 29.769531 28.035156 L 29.769531 29.355469 L 27.121094 29.355469 Z M 27.121094 28.035156 "/>
<path style=" stroke:none;fill-rule:nonzero;fill:url(#linear1);" d="M 3.308594 4.21875 L 28.445312 4.21875 C 29.175781 4.21875 29.769531 4.777344 29.769531 5.46875 L 29.769531 26.785156 C 29.769531 27.472656 29.175781 28.035156 28.445312 28.035156 L 3.308594 28.035156 C 2.578125 28.035156 1.984375 27.472656 1.984375 26.785156 L 1.984375 5.46875 C 1.984375 4.777344 2.578125 4.21875 3.308594 4.21875 Z M 3.308594 4.21875 "/>
<path style=" stroke:none;fill-rule:nonzero;fill:url(#linear2);" d="M 28.445312 4.21875 C 29.179688 4.21875 29.769531 4.777344 29.769531 5.46875 L 29.769531 16.125 L 15.875 16.125 L 15.875 4.21875 Z M 28.445312 4.21875 "/>
<path style=" stroke:none;fill-rule:nonzero;fill:url(#linear3);" d="M 3.308594 4.21875 C 2.574219 4.21875 1.984375 4.777344 1.984375 5.46875 L 1.984375 16.125 L 15.875 16.125 L 15.875 4.21875 Z M 3.308594 4.21875 "/>
<path style=" stroke:none;fill-rule:nonzero;fill:url(#linear4);" d="M 3.308594 28.035156 C 2.574219 28.035156 1.984375 27.476562 1.984375 26.785156 L 1.984375 16.125 L 15.875 16.125 L 15.875 28.035156 Z M 3.308594 28.035156 "/>
<path style=" stroke:none;fill-rule:nonzero;fill:rgb(92.54902%,92.54902%,92.54902%);fill-opacity:0.588235;" d="M 8.65625 7.859375 C 8.398438 7.597656 7.980469 7.597656 7.722656 7.859375 C 7.460938 8.117188 7.460938 8.535156 7.722656 8.792969 L 9.59375 10.664062 L 7.722656 12.535156 C 7.460938 12.792969 7.460938 13.210938 7.722656 13.472656 C 7.980469 13.730469 8.398438 13.730469 8.65625 13.472656 L 10.996094 11.132812 C 11.011719 11.117188 11.027344 11.097656 11.039062 11.082031 C 11.253906 10.820312 11.238281 10.4375 10.996094 10.195312 Z M 8.65625 7.859375 "/>
<path style=" stroke:none;fill-rule:nonzero;fill:rgb(100%,100%,100%);fill-opacity:0.392157;" d="M 3.308594 4.21875 C 2.574219 4.21875 1.984375 4.777344 1.984375 5.46875 L 1.984375 5.800781 C 1.984375 5.105469 2.574219 4.550781 3.308594 4.550781 L 28.445312 4.550781 C 29.179688 4.550781 29.769531 5.105469 29.769531 5.800781 L 29.769531 5.46875 C 29.769531 4.777344 29.179688 4.21875 28.445312 4.21875 Z M 3.308594 4.21875 "/>
<path style=" stroke:none;fill-rule:nonzero;fill:url(#linear5);" d="M 28.445312 28.035156 C 29.179688 28.035156 29.769531 27.476562 29.769531 26.785156 L 29.769531 16.125 L 15.875 16.125 L 15.875 28.035156 Z M 28.445312 28.035156 "/>
<path style=" stroke:none;fill-rule:nonzero;fill:rgb(0%,0%,0%);fill-opacity:0.235294;" d="M 3.308594 28.042969 C 2.574219 28.042969 1.984375 27.484375 1.984375 26.792969 L 1.984375 26.460938 C 1.984375 27.15625 2.574219 27.710938 3.308594 27.710938 L 28.445312 27.710938 C 29.179688 27.710938 29.769531 27.15625 29.769531 26.460938 L 29.769531 26.792969 C 29.769531 27.484375 29.179688 28.042969 28.445312 28.042969 Z M 3.308594 28.042969 "/>
<path style=" stroke:none;fill-rule:nonzero;fill:rgb(12.941177%,12.941177%,12.941177%);fill-opacity:1;" d="M 3.96875 5.464844 C 3.5625 5.464844 3.230469 5.796875 3.230469 6.203125 L 3.230469 24.726562 C 3.230469 25.136719 3.5625 25.464844 3.96875 25.464844 L 27.785156 25.464844 C 28.191406 25.464844 28.523438 25.136719 28.523438 24.726562 L 28.523438 6.203125 C 28.523438 5.796875 28.191406 5.464844 27.785156 5.464844 Z M 3.96875 5.621094 L 27.785156 5.621094 C 28.109375 5.621094 28.367188 5.878906 28.367188 6.203125 L 28.367188 24.726562 C 28.367188 25.050781 28.109375 25.308594 27.785156 25.308594 L 3.96875 25.308594 C 3.644531 25.308594 3.386719 25.050781 3.386719 24.726562 L 3.386719 6.203125 C 3.386719 5.878906 3.644531 5.621094 3.96875 5.621094 Z M 3.96875 5.621094 "/>
<path style=" stroke:none;fill-rule:nonzero;fill:rgb(87.058824%,87.058824%,87.058824%);fill-opacity:0.705882;" d="M 3.96875 5.628906 C 3.652344 5.628906 3.394531 5.886719 3.394531 6.203125 L 3.394531 24.726562 C 3.394531 25.042969 3.652344 25.300781 3.96875 25.300781 L 27.785156 25.300781 C 28.101562 25.300781 28.359375 25.042969 28.359375 24.726562 L 28.359375 6.203125 C 28.359375 5.886719 28.101562 5.628906 27.785156 5.628906 Z M 3.96875 5.785156 L 27.785156 5.785156 C 28.015625 5.785156 28.203125 5.972656 28.203125 6.203125 L 28.203125 24.726562 C 28.203125 24.960938 28.015625 25.144531 27.785156 25.144531 L 3.96875 25.144531 C 3.734375 25.144531 3.550781 24.960938 3.550781 24.726562 L 3.550781 6.203125 C 3.550781 5.972656 3.734375 5.785156 3.96875 5.785156 Z M 3.96875 5.785156 "/>
<path style="fill:none;stroke-width:3;stroke-linecap:round;stroke-linejoin:miter;stroke:rgb(12.941177%,12.941177%,12.941177%);stroke-opacity:1;stroke-miterlimit:4;" d="M 52.932445 -147.506445 L 455.081542 -147.506445 C 466.767926 -147.506445 476.267019 -138.569799 476.267019 -127.508355 L 476.267019 213.521578 C 476.267019 224.520528 466.767926 233.519669 455.081542 233.519669 L 52.932445 233.519669 C 41.246061 233.519669 31.746968 224.520528 31.746968 213.521578 L 31.746968 -127.508355 C 31.746968 -138.569799 41.246061 -147.506445 52.932445 -147.506445 Z M 52.932445 -147.506445 " transform="matrix(0.062506,0,0,0.062506,0,13.438783)"/>
<path style=" stroke:none;fill-rule:nonzero;fill:rgb(92.54902%,92.54902%,92.54902%);fill-opacity:0.588235;" d="M 22.21875 18.613281 C 21.957031 18.351562 21.542969 18.351562 21.28125 18.613281 C 21.023438 18.871094 21.023438 19.289062 21.28125 19.546875 L 23.152344 21.417969 L 21.28125 23.289062 C 21.023438 23.550781 21.023438 23.964844 21.28125 24.226562 C 21.542969 24.484375 21.957031 24.484375 22.21875 24.226562 L 24.554688 21.886719 C 24.574219 21.871094 24.589844 21.851562 24.601562 21.835938 C 24.816406 21.574219 24.800781 21.195312 24.554688 20.949219 Z M 22.21875 18.613281 "/>
</g>
</svg>
